actions/32/document-edit-decrypt-verify.svg

<svg xmlns="http://www.w3.org/2000/svg" viewBox="0 0 32 32">
  <defs
     id="defs3051">
<style type="text/css" id="current-color-scheme">.ColorScheme-Text {color:#fcfcfc;}</style>
  </defs>
  <path
     style="fill:currentColor;fill-opacity:1;stroke:none" 
     d="M 6,4 V 6 H 8 V 4 Z m 6,0 v 2 h 2 V 4 Z m 6,0 v 2 h 2 V 4 Z m 6,0 v 2 h 2 V 4 Z M 9,7 v 2 h 2 V 7 Z m 6,0 v 2 h 2 V 7 Z m 6,0 v 2 h 2 V 7 Z M 6,10 v 2 h 2 v -2 z m 6,0 v 2 h 2 v -2 z m 6,0 v 2 h 2 v -2 z m 6,0 v 2 h 2 V 10 Z M 9,13 v 2 h 2 v -2 z m 6,0 v 2 h 2 v -2 z m 6,0 v 2 h 2 V 13 Z M 6,16 c 0,0 0,4 0,8 0,4 4,4 4,4 h 4 v -1 h -4 c 0,0 -3,0 -3,-3 0,-3 0,-8 0,-8 z m 12.5,0 c -2.493,0 -4.5,2.01 -4.5,4.5 0,2.493 2.01,4.5 4.5,4.5 1.063643,0 2.026341,-0.381199 2.794922,-0.994141 l 3.996094,3.996094 0.707031,-0.707031 -3.996094,-3.996094 C 22.617604,22.529048 23,21.565338 23,20.5 23,18.007 20.99,16 18.5,16 Z m 0,1 C 20.439,17 22,18.561 22,20.5 22,22.439 20.439,24 18.5,24 16.561,24 15,22.439 15,20.5 15,18.561 16.561,17 18.5,17 Z"
     id="path66" 
     class="ColorScheme-Text"
     />
</svg>

<svg xmlns="http://www.w3.org/2000/svg" viewBox="0 0 32 32">
  <defs
     id="defs3051">
    <style
       type="text/css"
       id="current-color-scheme">
      .ColorScheme-Text {
        color:#d8d8d8;
      }
      </style>
  </defs>
  <path
     style="fill:currentColor;fill-opacity:1;stroke:none" 
     d="M 6 4 L 6 6 L 8 6 L 8 4 L 6 4 z M 12 4 L 12 6 L 14 6 L 14 4 L 12 4 z M 18 4 L 18 6 L 20 6 L 20 4 L 18 4 z M 24 4 L 24 6 L 26 6 L 26 4 L 24 4 z M 9 7 L 9 9 L 11 9 L 11 7 L 9 7 z M 15 7 L 15 9 L 17 9 L 17 7 L 15 7 z M 21 7 L 21 9 L 23 9 L 23 7 L 21 7 z M 6 10 L 6 12 L 8 12 L 8 10 L 6 10 z M 12 10 L 12 12 L 14 12 L 14 10 L 12 10 z M 18 10 L 18 12 L 20 12 L 20 10 L 18 10 z M 24 10 L 24 12 L 26 12 L 26 10 L 24 10 z M 9 13 L 9 15 L 11 15 L 11 13 L 9 13 z M 15 13 L 15 15 L 17 15 L 17 13 L 15 13 z M 21 13 L 21 15 L 23 15 L 23 13 L 21 13 z M 6 16 L 6 28 L 14 28 L 14 27 L 7 27 L 7 16 L 6 16 z M 18.5 16 C 16.007 16 14 18.01 14 20.5 C 14 22.993 16.01 25 18.5 25 C 19.563643 25 20.526341 24.618801 21.294922 24.005859 L 25.291016 28.001953 L 25.998047 27.294922 L 22.001953 23.298828 C 22.617604 22.529048 23 21.565338 23 20.5 C 23 18.007 20.99 16 18.5 16 z M 18.5 17 C 20.439 17 22 18.561 22 20.5 C 22 22.439 20.439 24 18.5 24 C 16.561 24 15 22.439 15 20.5 C 15 18.561 16.561 17 18.5 17 z "
     id="path66" 
     class="ColorScheme-Text"
     />
</svg>
